X:2
T:Captain Colin Campbell
R:Strathspey
C:Donald MacLeod
M:C
L:1/8
K:D
[|: {gBG}B2 {Gdc}d>c {g}B2 {GdGe}B>{d}c | {g}A2 {GdGe}A>{d}c {gef}e>A {g}f/e/c | {gBG}B2 {Gdc}d>c {g}B2 {GdGe}B>{d}c | {g}A>{d}c {gef}e>c {ag}a>f {g}f/e/c :|]
[|: {gfg}f2 {g}f<a g/f/e {ag}a2 | A2 {GdGe}A>{d}c {gef}e>A {g}f/e/c | {gfg}f2 {g}f<a g/f/e {ag}a2 | A>{d}c {gef}e>c {ag}a>f {g}f/e/c :|]
